assets/puzzle-piece/puzzle-piece-fill.svg

<svg id="Raw" xmlns="http://www.w3.org/2000/svg" viewBox="0 0 256 256">
  <rect width="256" height="256" fill="none"/>
  <path d="M165.78027,224.001,207.99951,224a16.018,16.018,0,0,0,16-16L224,170.34863a7.99966,7.99966,0,0,0-11.05957-7.3916A23.25464,23.25464,0,0,1,204,164.72754c-13.2334,0-24-11.09277-24-24.72754s10.7666-24.72754,24-24.72754a23.25464,23.25464,0,0,1,8.94043,1.77051A7.99966,7.99966,0,0,0,224,109.65137L223.99951,72A16.01812,16.01812,0,0,0,207.999,56l-36.21728.001A36.60975,36.60975,0,0,0,171.99951,52a36,36,0,0,0-72,0,36.60975,36.60975,0,0,0,.21778,4.001L63.99951,56a16.018,16.018,0,0,0-16,16L48,104.21777A36.47481,36.47481,0,0,0,43.99951,104a36,36,0,0,0,0,72A36.47481,36.47481,0,0,0,48,175.78223L47.99951,208A16.01791,16.01791,0,0,0,63.999,224l42.22071.001h0"/>
</svg>

<svg xmlns="http://www.w3.org/2000/svg" viewBox="0 0 256 256"><rect width="256" height="256" fill="none"/><path d="M165.8,224H208a16,16,0,0,0,16-16V170.3a7.9,7.9,0,0,0-3.6-6.6,7.7,7.7,0,0,0-7.5-.7,24.3,24.3,0,0,1-8.9,1.7c-13.2,0-24-11.1-24-24.7s10.8-24.7,24-24.7a24.3,24.3,0,0,1,8.9,1.7,7.7,7.7,0,0,0,7.5-.7,7.9,7.9,0,0,0,3.6-6.6V72a16,16,0,0,0-16-16H171.8c.1-1.3.2-2.7.2-4a36,36,0,0,0-72,0c0,1.3.1,2.7.2,4H64A16,16,0,0,0,48,72v32.2l-4-.2a36,36,0,0,0,0,72l4-.2V208a16,16,0,0,0,16,16h42.2"/></svg>
